svg/variable.svg

<?xml version="1.0" encoding="UTF-8"?>
<svg xmlns="http://www.w3.org/2000/svg" xmlns:xlink="http://www.w3.org/1999/xlink" width="32" height="32" viewBox="0 0 32 32">
<path fill-rule="nonzero" fill="rgb(0%, 0%, 0%)" fill-opacity="1" d="M 1.820312 1.921875 C 0.816406 1.921875 0 2.734375 0 3.738281 L 0 6.398438 L 32 6.398438 L 32 3.738281 C 32 2.734375 31.183594 1.921875 30.179688 1.921875 Z M 0 7.679688 L 0 29.441406 C 0 29.796875 0.289062 30.078125 0.640625 30.078125 L 31.359375 30.078125 C 31.714844 30.078125 32 29.796875 32 29.441406 L 32 7.679688 Z M 13.121094 11.441406 C 13.171875 11.433594 13.203125 11.460938 13.238281 11.5 C 13.273438 11.539062 13.289062 11.589844 13.28125 11.640625 L 13.179688 12.140625 C 13.167969 12.203125 13.121094 12.25 13.058594 12.261719 C 12.558594 12.351562 12.066406 12.621094 11.621094 13.058594 C 11.164062 13.507812 10.765625 14.128906 10.421875 14.898438 C 10.113281 15.578125 9.871094 16.378906 9.699219 17.261719 C 9.53125 18.097656 9.445312 18.949219 9.441406 19.800781 C 9.441406 20.59375 9.574219 21.238281 9.820312 21.738281 C 10.058594 22.222656 10.425781 22.5 10.960938 22.601562 C 11.007812 22.609375 11.050781 22.640625 11.078125 22.679688 C 11.101562 22.714844 11.113281 22.757812 11.101562 22.800781 L 10.980469 23.261719 C 10.960938 23.332031 10.914062 23.378906 10.839844 23.378906 L 10.820312 23.378906 C 9.914062 23.265625 9.199219 22.863281 8.699219 22.160156 C 8.207031 21.46875 7.960938 20.539062 7.960938 19.378906 C 7.960938 17.28125 8.441406 15.457031 9.421875 13.980469 C 10.40625 12.488281 11.664062 11.636719 13.121094 11.441406 M 21.941406 11.441406 C 22.84375 11.550781 23.558594 11.976562 24.058594 12.679688 C 24.550781 13.371094 24.800781 14.300781 24.800781 15.460938 C 24.800781 17.558594 24.316406 19.363281 23.339844 20.839844 C 22.351562 22.328125 21.097656 23.183594 19.640625 23.378906 L 19.621094 23.378906 C 19.578125 23.378906 19.53125 23.371094 19.5 23.339844 C 19.464844 23.300781 19.449219 23.25 19.460938 23.199219 L 19.558594 22.679688 C 19.574219 22.613281 19.636719 22.570312 19.699219 22.558594 C 20.203125 22.46875 20.671875 22.199219 21.121094 21.761719 C 21.578125 21.3125 21.996094 20.710938 22.339844 19.941406 C 22.640625 19.261719 22.886719 18.464844 23.058594 17.578125 C 23.234375 16.695312 23.320312 15.84375 23.320312 15.039062 C 23.320312 14.246094 23.191406 13.578125 22.941406 13.078125 C 22.703125 12.597656 22.316406 12.320312 21.78125 12.21875 C 21.738281 12.210938 21.703125 12.199219 21.679688 12.160156 C 21.65625 12.117188 21.648438 12.066406 21.660156 12.019531 L 21.761719 11.558594 C 21.777344 11.480469 21.859375 11.433594 21.941406 11.441406 M 19.039062 14.761719 C 19.265625 14.761719 19.464844 14.828125 19.621094 14.980469 C 19.785156 15.128906 19.871094 15.339844 19.859375 15.558594 C 19.855469 15.855469 19.742188 16.074219 19.519531 16.21875 C 19.203125 16.429688 18.863281 16.488281 18.402344 16.359375 C 18.285156 16.328125 18.179688 16.285156 18.105469 16.261719 C 17.898438 16.464844 17.710938 16.6875 17.539062 16.921875 C 17.3125 17.222656 17.089844 17.558594 16.882812 17.921875 C 16.976562 18.289062 17.066406 18.613281 17.144531 18.878906 C 17.222656 19.160156 17.289062 19.441406 17.382812 19.71875 C 17.449219 19.949219 17.574219 20.128906 17.722656 20.261719 C 17.859375 20.386719 18.050781 20.441406 18.28125 20.441406 C 18.371094 20.441406 18.496094 20.425781 18.664062 20.398438 C 18.792969 20.382812 18.917969 20.359375 19.039062 20.320312 C 19.101562 20.300781 19.160156 20.296875 19.199219 20.339844 C 19.242188 20.382812 19.257812 20.441406 19.242188 20.5 L 19.121094 20.921875 C 19.113281 20.96875 19.082031 21.003906 19.039062 21.019531 C 18.738281 21.15625 18.425781 21.269531 18.105469 21.359375 C 17.882812 21.414062 17.652344 21.441406 17.425781 21.441406 C 17.101562 21.441406 16.816406 21.371094 16.605469 21.21875 C 16.382812 21.066406 16.210938 20.757812 16.078125 20.300781 C 15.996094 19.992188 15.9375 19.746094 15.878906 19.539062 C 15.859375 19.453125 15.847656 19.367188 15.820312 19.28125 C 15.722656 19.4375 15.617188 19.574219 15.542969 19.699219 C 15.414062 19.90625 15.195312 20.179688 14.898438 20.539062 C 14.640625 20.859375 14.390625 21.101562 14.160156 21.238281 C 13.941406 21.382812 13.6875 21.457031 13.425781 21.460938 C 13.210938 21.464844 13 21.386719 12.84375 21.238281 C 12.679688 21.09375 12.605469 20.890625 12.605469 20.640625 C 12.605469 20.398438 12.699219 20.191406 12.882812 20.019531 C 13.0625 19.851562 13.300781 19.78125 13.605469 19.78125 C 13.757812 19.78125 13.898438 19.804688 14.039062 19.859375 C 14.140625 19.894531 14.242188 19.925781 14.339844 19.960938 C 14.53125 19.761719 14.710938 19.554688 14.882812 19.339844 C 15.121094 19.046875 15.355469 18.710938 15.5625 18.339844 L 15.320312 17.421875 C 15.230469 17.066406 15.140625 16.765625 15.0625 16.5 C 14.941406 16.128906 14.839844 15.988281 14.765625 15.941406 C 14.585938 15.820312 14.304688 15.796875 13.964844 15.878906 C 13.828125 15.914062 13.695312 15.925781 13.578125 15.960938 C 13.523438 15.976562 13.464844 15.960938 13.425781 15.921875 C 13.382812 15.878906 13.363281 15.835938 13.382812 15.78125 L 13.503906 15.359375 C 13.515625 15.3125 13.558594 15.277344 13.605469 15.261719 C 13.925781 15.125 14.222656 15.007812 14.480469 14.921875 C 14.851562 14.796875 14.972656 14.78125 15.042969 14.78125 C 15.363281 14.78125 15.640625 14.859375 15.863281 15.019531 C 16.085938 15.183594 16.238281 15.480469 16.363281 15.921875 C 16.488281 16.386719 16.578125 16.675781 16.605469 16.78125 L 16.644531 17 C 16.746094 16.828125 16.847656 16.671875 16.921875 16.539062 C 17.050781 16.320312 17.273438 16.035156 17.5625 15.679688 C 17.839844 15.332031 18.074219 15.09375 18.320312 14.960938 C 18.542969 14.832031 18.789062 14.765625 19.042969 14.761719 M 19.042969 14.761719 "/>
</svg>

<svg role="img" viewBox="0 0 32 32" height="32" width="32" xmlns="http://www.w3.org/2000/svg"><path d="M1.82 1.922C.816 1.922 0 2.734 0 3.738v2.66h32v-2.66a1.819 1.819 0 0 0-1.82-1.816ZM0 7.68v21.76c0 .356.29.637.64.637h30.72c.355 0 .64-.281.64-.637V7.68Zm13.121 3.761c.05-.007.082.02.117.059a.17.17 0 0 1 .043.14l-.101.5a.15.15 0 0 1-.121.122c-.5.09-.993.36-1.438.797-.457.449-.855 1.07-1.2 1.84-.308.68-.55 1.48-.722 2.363a13.205 13.205 0 0 0-.258 2.539c0 .793.133 1.437.38 1.937.238.485.605.762 1.14.864.047.007.09.039.117.078.024.035.035.078.024.12l-.122.462c-.02.07-.066.117-.14.117h-.02c-.906-.113-1.62-.516-2.12-1.219-.493-.691-.74-1.62-.74-2.781 0-2.098.481-3.922 1.462-5.399.984-1.492 2.242-2.343 3.7-2.539m8.82 0c.902.11 1.617.536 2.117 1.239.492.691.742 1.62.742 2.78 0 2.099-.485 3.903-1.461 5.38-.988 1.488-2.242 2.344-3.7 2.539h-.019c-.043 0-.09-.008-.121-.04a.156.156 0 0 1-.04-.14l.099-.52c.015-.066.078-.109.14-.12.504-.09.973-.36 1.422-.797.457-.45.875-1.051 1.219-1.82.3-.68.547-1.477.719-2.364.175-.883.261-1.734.261-2.539 0-.793-.129-1.46-.379-1.96-.238-.481-.625-.759-1.16-.86-.043-.008-.078-.02-.101-.059a.197.197 0 0 1-.02-.14l.102-.461c.015-.079.097-.125.18-.118m-2.903 3.32c.227 0 .426.067.582.22.164.148.25.359.238.578-.004.296-.117.515-.34.66-.316.21-.656.27-1.117.14-.117-.03-.222-.074-.297-.097a5.372 5.372 0 0 0-.566.66c-.227.3-.45.637-.656 1 .094.367.183.691.262.957.078.281.144.562.238.84.066.23.191.41.34.543.136.125.328.18.558.18.09 0 .215-.016.383-.044a1.95 1.95 0 0 0 .375-.078c.063-.02.121-.023.16.02a.161.161 0 0 1 .043.16l-.12.422a.124.124 0 0 1-.083.098c-.3.136-.613.25-.934.34a2.863 2.863 0 0 1-.68.081c-.323 0-.609-.07-.82-.222-.222-.153-.394-.461-.527-.918-.082-.309-.14-.555-.2-.762-.019-.086-.03-.172-.058-.258-.097.157-.203.293-.277.418-.129.207-.348.48-.645.84-.257.32-.507.563-.738.7a1.363 1.363 0 0 1-.734.222.824.824 0 0 1-.582-.223c-.164-.144-.239-.347-.239-.597 0-.243.094-.45.278-.621.18-.168.418-.239.722-.239.153 0 .293.024.434.078.102.036.203.067.3.102.192-.2.372-.406.544-.621.238-.293.472-.63.68-1l-.243-.918c-.09-.356-.18-.656-.258-.922-.12-.371-.222-.512-.296-.559-.18-.12-.461-.144-.801-.062-.137.035-.27.047-.387.082a.156.156 0 0 1-.152-.04c-.043-.042-.063-.085-.043-.14l.12-.422c.013-.046.056-.082.102-.097.32-.137.618-.254.875-.34.372-.125.493-.14.563-.14.32 0 .598.077.82.238.223.164.375.46.5.902.125.465.215.754.242.86l.04.218c.101-.172.203-.328.277-.46.129-.22.351-.505.64-.86.278-.348.512-.586.758-.72.223-.128.47-.194.723-.198m0 0"/></svg>
